!!!OTL: Als Gott hat Adam erschaffen, S. 41
!!!id: S0072
**kern
*clefG2
*k[b-e-]
*B-:
{4f
=1
4b-
4f
4b-
4cc
=2
4dd
4cc
4b-}
4r
=3
{4.cc
8b-
4cc
4dd
=4
4ee-
4dd
4cc}
=5
{4b-
=6
2ee-
8dd
8ee-
4dd
=7
4cc}
2r
=8
{4ee-
=9
4dd
4ff
4ff
4dd
=10
4cc
4dd
4ee-}
=11
{4cc
=12
4b-
4dd
4ff
4dd
=13
8cc
8cc
4dd
4ee-}
=14
{8cc
8cc
=15
2b-
2cc
=16
4.dd
8ee-
4ff}
=17
{8ee-
8ee-
=18
2dd
2cc
=19
4b-}
2r
=20
{4ee-
=21
4dd
4ff
4ff
4dd
=22
4cc
4dd
4ee-}
=23
{4cc
=24
4b-
4dd
4ff
4dd
=25
8cc
8cc
4dd
4ee-}
=26
{8cc
8cc
=27
2b-
2cc
=28
4.dd
8ee-
4ff}
=29
{8ee-
8ee-
=30
2dd
2cc
=31
4b-}
2r
==
*-
!!!minrhy: 8
!!!meters: 4/4 ]  ZZ[11
!!!cut: Als Gott hat Adam erschaffen, S. 41
!!!reg: Luxemburg
!!!trd: Die Bauernhochzeit in fr&uuml;heren Zeiten
!!!rhy1: X_  X_X_X_X_  X_X_X_0_
!!!rhy2: X_.XX_X_  X_X_X_
!!!key: S0072  08 Bb 4/4 ]  ZZ[11
!!!mod: PENTATONIK DUR ?]  AMBITUS[8
!!!kad: 12244514451
!!!akz: 1131_2242_432_3524_1524_1235_321_3524_1524_1235_321_
!!!fot: 'a__as'b__c__cw_d__bs'c__cw_d__bs'
!!!for: 'a__b__c__av_d__e__ew_av_d__e__ew_
!!!fok: '^a_^__^a_V__~a_/__\__V__~a_/__\__
!! PHRAS[VORWIEGEND AUFTAKTIG]
!!!fkt: Hochzeitslied, religiöses Ehestandslied
!! SPEDENER, G:
!! PR[27] 2K[4] 2G[11] 3K[9] 3G[0] 4A[4] 4Ü[0] 5A[0] 6K[0] 6G[0]
!! 7K[0] 7G[0] 8A[0] MEHR[0] SI[29] ABS[45] SR[16] SP[13]
!! ST[14] 2k[13] 2g[24] 3k[4] 3g[2] 4d[0] 4ü[0] 5d[0] 6k[0] 6g[0]
!! 7k[0] 7g[0] 8d[0] mehr[0] si[44] dm[-15] sr[38] sp[7]
!! 1F[8] 2F[47] 3F[24] 4F[10] LF[0] 2P[0] 3P[10] 4P[0] TRI[0] DF[5] AB[49]
!! TF[0] U3K[0] U3[0] U4[0] U4Ü[0] U5[0] U6K[0] U6[0] U7K[0] U7[0]
!! N1[2] N2K[0] N2[22] N3K[0] N3[35] N4[15] N4Ü[0] N5[22] N6K[0] N6[4]
!!!n7k: 0] N7[0] O1[0] O2K[0] O2[0] O3K[0] O3[0] HÖ[0
!!!RNB: symbol: &uuml;  = u umlaut (UTF-8: Ã¼)
